!!! OTL: Berkowitz216
!!! Chapter: 1
!!! Section: II
!!! Page: 50
!!! Mode: 
!!! Encoder: DJB
**kern
*staff1
*I"Piano
=1-
*clefF4
*k[b-e-]
*B-:
*M3/4
8F\
4D\
8F\
4G\
=2
8F\
4D\
8BB-/
4C/
=3
8D\
4F\
8B-\
8A\L
8c\J
=4
2F\
4E-\
=5
8D\
4BB-/
8GG/
4E-\
=6
8C/
4AA/
8FF/
4D\
=7
8r
8E-\
8F\L
8G\J
8A\L
8B-\J
=8
8D\
4C/
8D\
4BB-/
==
*-
